X:1
T:Title
%%score { 1 | 2 }
L:1/8
M:3/4
K:D
V:1 treble nm="Grand Piano"
V:2 bass 
V:1
 z2 z2[Q:1/4=92] DF | [FA]3 [DF] [DG][GB] | [FA] [Fd]3 [Fd][Ac] | B3 d AF |[M:2/4] [CE]4 | %5
[M:1/4] DF |[M:3/4] [FA]3 [DF] [DG][GB] | [FA] [Fd]3 [FA][Fd] | c3 B A^G |[M:2/4] [CEA]4 | %10
[M:1/4] [DFA][DFA] |[M:3/4] [DFA]3 [A,DF] [A,EG][A,CE] | [A,DF] [DFA]3 [DFA][DA] | %13
 [CGA]3 [CGA] [CGB][CGA] |[M:2/4] [FA]4 |[M:1/4] [Fd][Fd] |[M:3/4] d3 B GB | [FA] [Fd]3 [Fd][Ac] | %18
 Be d2 [Gc]2 |[M:2/4] [Fd]4 |] %20
V:2
 z2 z2 [D,F,][D,A,D] | [D,D]3 [D,A,] [D,B,][D,D] | [D,D] [D,A,]3 [D,A,][F,D] | %3
 [G,DG]3 [G,B,G][K:bass] [F,D][D,A,D] |[M:2/4] [A,,A,]4 |[M:1/4] [D,F,][D,A,D] | %6
[M:3/4] [D,D]3 [D,A,] [D,B,][D,D] | [D,D] [D,A,]3 [D,A,][D,A,] | [E,A,E]3 [E,DE] [E,CE][E,B,E] | %9
[M:2/4] A,,4 |[M:1/4] D,D, |[M:3/4] D,3 D, A,,A,, | D, D,3 D,D, | E,3 E, A,,A,, |[M:2/4] [D,D]4 | %15
[M:1/4] [D,D][D,=C] |[M:3/4][K:treble] [G,B,F]3 [G,DG] [G,B,D][G,DG] | [D,D] [D,A,]3 [D,A,][F,D] | %18
 [G,DG][G,B,G] [A,F]2[K:bass] [A,,A,]2 |[M:2/4] [D,A,]4 |] %20

